; generated by PrusaSlicer 2.3.0+win64 on 2021-03-10 at 17:08:51 UTC


;
;

;
;
; 

; external perimeters extrusion width = 0.40mm
; perimeters extrusion width = 0.40mm
; infill extrusion width = 0.45mm
; solid infill extrusion width = 0.45mm
; top infill extrusion width = 0.40mm
; first layer extrusion width = 0.42mm

M73 P0 R140
M201 X1250 Y1250 Z400 E5000 ; sets maximum accelerations, mm/sec^2
M203 X180 Y180 Z12 E80 ; sets maximum feedrates, mm/sec
M204 P1250 R1250 T1250 ; sets acceleration (P, T) and retract acceleration (R), mm/sec^2
M205 X8.00 Y8.00 Z2.00 E10.00 ; sets the jerk limits, mm/sec
M205 S0 T0 ; sets the minimum extruding and travel feed rate, mm/sec
M107
;TYPE:Custom
G90 ; use absolute coordinates
M83 ; extruder relative mode
M104 S170 ; set extruder temp for bed leveling
M140 S60 ; set bed temp
M109 R170 ; wait for bed leveling temp
M190 S60 ; wait for bed temp
G28 ; home all without mesh bed level
G29 ; mesh bed leveling 
M104 S215 ; set extruder temp
G92 E0.0
G1 Y-2.0 X179 F2400
G1 Z3 F720
M109 S215 ; wait for extruder temp

; intro line
G1 X170 F1000
G1 Z0.2 F720
G1 X110.0 E8.0 F900
G1 X40.0 E10.0 F700
G92 E0.0

M221 S95 ; set flow
G21 ; set units to millimeters
G90 ; use absolute coordinates
M83 ; use relative distances for extrusion
M900 K0.2 ; Filament gcode LA 1.5
; ; Filament gcode LA 1.0
;LAYER_CHANGE
;Z:0.2
;HEIGHT:0.2
;BEFORE_LAYER_CHANGE
G92 E0.0
;0.2


G1 Z0.200 F9000.000
;AFTER_LAYER_CHANGE
;0.2
G1 E-3.20000 F4200.000
G1 Z0.400 F9000.000
G1 X75.363 Y56.574
G1 Z0.200
G1 E3.20000 F2400.000
M204 S800
;TYPE:Skirt
;WIDTH:0.42
G1 F1200.000
G1 X75.887 Y56.062 E0.02296
G1 X79.000 Y53.987 E0.11731
G1 X79.501 Y53.749 E0.01740
G1 X80.040 Y53.634 E0.01728
G1 X106.268 Y53.623 E0.82236
G1 X106.771 Y53.678 E0.01585
G1 X107.250 Y53.837 E0.01585
G1 X117.080 Y58.452 E0.34046
G1 X117.578 Y58.772 E0.01858
G1 X122.468 Y63.897 E0.22210
G1 X124.877 Y68.619 E0.16620
G1 X125.092 Y69.338 E0.02355
G1 X125.069 Y79.125 E0.30686
G1 X115.576 Y119.555 E1.30213
G1 X115.167 Y120.424 E0.03013
G1 X114.625 Y120.949 E0.02367
G1 X113.945 Y121.277 E0.02367
G1 X95.889 Y126.293 E0.58757
G1 X95.284 Y126.377 E0.01917
G1 X74.938 Y126.355 E0.63793
G1 X56.613 Y121.286 E0.59612
G1 X55.839 Y120.903 E0.02708
G1 X55.479 Y120.570 E0.01538
G1 X55.193 Y120.167 E0.01550
G1 X54.997 Y119.713 E0.01550
G1 X54.899 Y119.233 E0.01538
G1 X54.887 Y112.970 E0.19638
G1 X54.990 Y112.309 E0.02095
G1 X75.032 Y57.184 E1.83910
M73 P0 R139
G1 X75.334 Y56.626 E0.01990
M204 S1250
; printing object Cat.stl id:0 copy 0
G1 E-2.24000 F4200.000
;WIPE_START
G1 F7200.000
G1 X75.887 Y56.062 E-0.43763
G1 X76.599 Y55.588 E-0.47437
;WIPE_END
G1 E-0.04800 F4200.000
G1 Z0.400 F9000.000
G1 X85.619 Y111.135
G1 Z0.200
G1 E3.20000 F2400.000
M204 S800
;TYPE:Perimeter
G1 F1200.000
G1 X86.384 Y111.135 E0.02398
G1 X87.126 Y111.318 E0.02398
G1 X87.804 Y111.673 E0.02398
G1 X88.376 Y112.181 E0.02398
G1 X88.811 Y112.810 E0.02398
G1 X89.082 Y113.525 E0.02398
G1 X89.174 Y114.284 E0.02398
G1 X89.082 Y115.044 E0.02398
G1 X88.811 Y115.759 E0.02398
G1 X88.376 Y116.388 E0.02398
G1 X87.804 Y116.896 E0.02398
G1 X87.126 Y117.251 E0.02398
G1 X86.384 Y117.434 E0.02398
G1 X85.619 Y117.434 E0.02398
G1 X84.876 Y117.251 E0.02398
G1 X84.199 Y116.896 E0.02398
G1 X83.627 Y116.388 E0.02398
G1 X83.192 Y115.759 E0.02398
G1 X82.921 Y115.044 E0.02398
G1 X82.829 Y114.284 E0.02398
G1 X82.921 Y113.525 E0.02398
G1 X83.192 Y112.810 E0.02398
G1 X83.627 Y112.181 E0.02398
G1 X84.199 Y111.673 E0.02398
G1 X84.876 Y111.318 E0.02398
G1 X85.561 Y111.149 E0.02210
M204 S1250
G1 X85.651 Y111.515 F9000.000
M204 S800
G1 F1200.000
G1 X86.338 Y111.512 E0.02154
G1 X86.992 Y111.673 E0.02111
G1 X87.588 Y111.986 E0.02111
G1 X88.092 Y112.432 E0.02111
G1 X88.474 Y112.987 E0.02111
G1 X88.713 Y113.616 E0.02111
G1 X88.794 Y114.284 E0.02111
G1 X88.713 Y114.953 E0.02111
G1 X88.474 Y115.582 E0.02111
G1 X88.092 Y116.136 E0.02111
G1 X87.588 Y116.583 E0.02111
G1 X86.992 Y116.896 E0.02111
G1 X86.338 Y117.057 E0.02111
G1 X85.665 Y117.057 E0.02111
G1 X85.011 Y116.896 E0.02111
G1 X84.415 Y116.583 E0.02111
G1 X83.911 Y116.136 E0.02111
G1 X83.528 Y115.582 E0.02111
G1 X83.290 Y114.953 E0.02111
G1 X83.209 Y114.284 E0.02111
G1 X83.290 Y113.616 E0.02111
G1 X83.528 Y112.987 E0.02111
G1 X83.911 Y112.432 E0.02111
G1 X84.415 Y111.986 E0.02111
G1 X85.011 Y111.673 E0.02111
G1 X85.593 Y111.530 E0.01878
M204 S1250
G1 X85.683 Y111.896 F9000.000
M204 S800
;TYPE:External perimeter
G1 F1200.000
G1 X86.292 Y111.889 E0.01911
G1 X86.857 Y112.028 E0.01824
G1 X87.372 Y112.299 E0.01824
G1 X87.808 Y112.684 E0.01824
G1 X88.138 Y113.163 E0.01824
G1 X88.344 Y113.707 E0.01824
G1 X88.414 Y114.284 E0.01824
G1 X88.344 Y114.862 E0.01824
G1 X88.138 Y115.406 E0.01824
G1 X87.808 Y115.885 E0.01824
G1 X87.372 Y116.270 E0.01824
G1 X86.857 Y116.541 E0.01824
G1 X86.292 Y116.680 E0.01824
G1 X85.711 Y116.680 E0.01824
G1 X85.146 Y116.541 E0.01824
G1 X84.631 Y116.270 E0.01824
G1 X84.195 Y115.885 E0.01824
G1 X83.865 Y115.406 E0.01824
G1 X83.658 Y114.862 E0.01824
G1 X83.588 Y114.284 E0.01824
G1 X83.658 Y113.707 E0.01824
G1 X83.865 Y113.163 E0.01824
G1 X84.195 Y112.684 E0.01824
G1 X84.631 Y112.299 E0.01824
G1 X85.146 Y112.028 E0.01824
G1 X85.625 Y111.910 E0.01547
M204 S1250
G1 X85.837 Y111.527 F9000.000
G1 E-2.24000 F4200.000
;WIPE_START
G1 F7200.000
G1 X86.292 Y111.889 E-0.37013
G1 X86.857 Y112.028 E-0.32236
G1 X87.208 Y112.212 E-0.21950
;WIPE_END
G1 E-0.04800 F4200.000
G1 Z0.400 F9000.000
G1 X83.100 Y60.164
G1 Z0.200
G1 E3.20000 F2400.000
M204 S800
;TYPE:Perimeter
G1 F1200.000
G1 X87.428 Y60.164 E0.13571
G1 X87.428 Y57.164 E0.09406
G1 X105.100 Y57.164 E0.55408
G1 X105.100 Y60.164 E0.09406
G1 X108.100 Y60.164 E0.09406
G1 X108.100 Y62.164 E0.06271
G1 X112.428 Y62.164 E0.13571
G1 X112.428 Y61.761 E0.01264
G1 X114.891 Y61.761 E0.07723
G1 X114.891 Y64.164 E0.07535
G1 X117.100 Y64.164 E0.06925
G1 X117.100 Y66.440 E0.07137
G1 X119.368 Y66.440 E0.07110
G1 X119.368 Y70.815 E0.13715
G1 X121.572 Y70.815 E0.06911
G1 X121.572 Y77.506 E0.20981
G1 X119.368 Y77.506 E0.06911
G1 X119.368 Y79.836 E0.07304
G1 X117.428 Y79.836 E0.06080
G1 X117.428 Y77.506 E0.07304
G1 X114.928 Y77.506 E0.07839
G1 X114.928 Y67.836 E0.30321
G1 X110.100 Y67.836 E0.15139
G1 X110.100 Y74.836 E0.21948
G1 X108.100 Y74.836 E0.06271
G1 X108.100 Y79.836 E0.15677
G1 X106.100 Y79.836 E0.06271
G1 X106.100 Y81.836 E0.06271
G1 X103.100 Y81.836 E0.09406
G1 X103.100 Y84.836 E0.09406
G1 X101.100 Y84.836 E0.06271
G1 X101.100 Y86.836 E0.06271
G1 X99.100 Y86.836 E0.06271
G1 X99.100 Y91.164 E0.13571
G1 X101.100 Y91.164 E0.06271
G1 X101.100 Y93.164 E0.06271
G1 X104.100 Y93.164 E0.09406
G1 X104.100 Y98.164 E0.15677
G1 X106.100 Y98.164 E0.06271
G1 X106.100 Y107.164 E0.28219
G1 X108.100 Y107.164 E0.06271
G1 X108.100 Y109.164 E0.06271
G1 X110.100 Y109.164 E0.06271
G1 X110.100 Y114.164 E0.15677
G1 X112.100 Y114.164 E0.06271
G1 X112.100 Y117.836 E0.11512
G1 X99.100 Y117.836 E0.40761
G1 X99.100 Y120.836 E0.09406
G1 X94.100 Y120.836 E0.15677
G1 X94.100 Y122.836 E0.06271
G1 X76.428 Y122.836 E0.55408
G1 X76.428 Y120.836 E0.06271
G1 X71.428 Y120.836 E0.15677
G1 X71.428 Y117.836 E0.09406
G1 X58.428 Y117.836 E0.40761
G1 X58.428 Y114.164 E0.11512
G1 X60.428 Y114.164 E0.06271
G1 X60.428 Y109.164 E0.15677
G1 X63.428 Y109.164 E0.09406
G1 X63.428 Y107.164 E0.06271
G1 X65.428 Y107.164 E0.06271
G1 X65.428 Y98.164 E0.28219
G1 X67.428 Y98.164 E0.06271
G1 X67.428 Y93.164 E0.15677
G1 X69.428 Y93.164 E0.06271
G1 X69.428 Y91.164 E0.06271
G1 X72.428 Y91.164 E0.09406
G1 X72.428 Y89.164 E0.06271
G1 X76.428 Y89.164 E0.12542
G1 X76.428 Y84.260 E0.15376
G1 X74.428 Y84.260 E0.06271
G1 X74.428 Y75.164 E0.28520
G1 X76.428 Y75.164 E0.06271
G1 X76.428 Y66.164 E0.28219
G1 X78.428 Y66.164 E0.06271
G1 X78.428 Y59.164 E0.21948
G1 X81.428 Y59.164 E0.09406
G1 X81.428 Y57.164 E0.06271
G1 X83.100 Y57.164 E0.05241
G1 X83.100 Y60.104 E0.09218
M204 S1250
G1 X83.477 Y59.787 F9000.000
M204 S800
G1 F1200.000
G1 X87.051 Y59.787 E0.11207
G1 X87.051 Y56.787 E0.09406
G1 X105.477 Y56.787 E0.57773
G1 X105.477 Y59.787 E0.09406
G1 X108.477 Y59.787 E0.09406
G1 X108.477 Y61.787 E0.06271
G1 X112.051 Y61.787 E0.11207
G1 X112.051 Y61.384 E0.01264
G1 X115.269 Y61.384 E0.10088
G1 X115.269 Y63.787 E0.07535
G1 X117.477 Y63.787 E0.06925
G1 X117.477 Y66.063 E0.07137
G1 X119.745 Y66.063 E0.07110
G1 X119.745 Y70.438 E0.13715
G1 X121.949 Y70.438 E0.06911
G1 X121.949 Y77.883 E0.23346
G1 X119.745 Y77.883 E0.06911
G1 X119.745 Y80.213 E0.07304
G1 X117.051 Y80.213 E0.08445
G1 X117.051 Y77.883 E0.07304
G1 X114.551 Y77.883 E0.07839
G1 X114.551 Y68.213 E0.30321
G1 X110.477 Y68.213 E0.12774
G1 X110.477 Y75.213 E0.21948
G1 X108.477 Y75.213 E0.06271
G1 X108.477 Y80.213 E0.15677
G1 X106.477 Y80.213 E0.06271
G1 X106.477 Y82.213 E0.06271
G1 X103.477 Y82.213 E0.09406
G1 X103.477 Y85.213 E0.09406
G1 X101.477 Y85.213 E0.06271
G1 X101.477 Y87.213 E0.06271
G1 X99.477 Y87.213 E0.06271
G1 X99.477 Y90.787 E0.11207
G1 X101.477 Y90.787 E0.06271
G1 X101.477 Y92.787 E0.06271
G1 X104.477 Y92.787 E0.09406
G1 X104.477 Y97.787 E0.15677
G1 X106.477 Y97.787 E0.06271
G1 X106.477 Y106.787 E0.28219
G1 X108.477 Y106.787 E0.06271
G1 X108.477 Y108.787 E0.06271
G1 X110.477 Y108.787 E0.06271
G1 X110.477 Y113.787 E0.15677
G1 X112.477 Y113.787 E0.06271
G1 X112.477 Y118.213 E0.13877
G1 X99.477 Y118.213 E0.40761
G1 X99.477 Y121.213 E0.09406
G1 X94.477 Y121.213 E0.15677
G1 X94.477 Y123.213 E0.06271
G1 X76.051 Y123.213 E0.57773
G1 X76.051 Y121.213 E0.06271
G1 X71.051 Y121.213 E0.15677
G1 X71.051 Y118.213 E0.09406
G1 X58.051 Y118.213 E0.40761
G1 X58.051 Y113.787 E0.13877
G1 X60.051 Y113.787 E0.06271
G1 X60.051 Y108.787 E0.15677
G1 X63.051 Y108.787 E0.09406
G1 X63.051 Y106.787 E0.06271
G1 X65.051 Y106.787 E0.06271
G1 X65.051 Y97.787 E0.28219
G1 X67.051 Y97.787 E0.06271
G1 X67.051 Y92.787 E0.15677
G1 X69.051 Y92.787 E0.06271
G1 X69.051 Y90.787 E0.06271
G1 X72.051 Y90.787 E0.09406
G1 X72.051 Y88.787 E0.06271
G1 X76.051 Y88.787 E0.12542
G1 X76.051 Y84.637 E0.13011
G1 X74.051 Y84.637 E0.06271
G1 X74.051 Y74.787 E0.30885
G1 X76.051 Y74.787 E0.06271
G1 X76.051 Y65.787 E0.28219
G1 X78.051 Y65.787 E0.06271
G1 X78.051 Y58.787 E0.21948
G1 X81.051 Y58.787 E0.09406
G1 X81.051 Y56.787 E0.06271
G1 X83.477 Y56.787 E0.07606
G1 X83.477 Y59.727 E0.09218
M204 S1250
G1 X83.854 Y59.410 F9000.000
M204 S800
;TYPE:External perimeter
G1 F1200.000
G1 X86.674 Y59.410 E0.08842
G1 X86.674 Y56.410 E0.09406
G1 X105.854 Y56.410 E0.60138
G1 X105.854 Y59.410 E0.09406
G1 X108.854 Y59.410 E0.09406
G1 X108.854 Y61.410 E0.06271
G1 X111.674 Y61.410 E0.08842
G1 X111.674 Y61.007 E0.01264
G1 X115.646 Y61.007 E0.12452
G1 X115.646 Y63.410 E0.07535
G1 X117.854 Y63.410 E0.06925
G1 X117.854 Y65.686 E0.07137
G1 X120.122 Y65.686 E0.07110
G1 X120.122 Y70.061 E0.13715
G1 X122.326 Y70.061 E0.06911
G1 X122.326 Y78.261 E0.25710
G1 X120.122 Y78.261 E0.06911
G1 X120.122 Y80.590 E0.07304
G1 X116.674 Y80.590 E0.10809
G1 X116.674 Y78.261 E0.07304
G1 X114.174 Y78.261 E0.07839
G1 X114.174 Y68.590 E0.30321
G1 X110.854 Y68.590 E0.10410
G1 X110.854 Y75.590 E0.21948
G1 X108.854 Y75.590 E0.06271
G1 X108.854 Y80.590 E0.15677
G1 X106.854 Y80.590 E0.06271
G1 X106.854 Y82.590 E0.06271
G1 X103.854 Y82.590 E0.09406
G1 X103.854 Y85.590 E0.09406
G1 X101.854 Y85.590 E0.06271
G1 X101.854 Y87.590 E0.06271
G1 X99.854 Y87.590 E0.06271
G1 X99.854 Y90.410 E0.08842
G1 X101.854 Y90.410 E0.06271
G1 X101.854 Y92.410 E0.06271
G1 X104.854 Y92.410 E0.09406
G1 X104.854 Y97.410 E0.15677
G1 X106.854 Y97.410 E0.06271
G1 X106.854 Y106.410 E0.28219
G1 X108.854 Y106.410 E0.06271
G1 X108.854 Y108.410 E0.06271
G1 X110.854 Y108.410 E0.06271
G1 X110.854 Y113.410 E0.15677
G1 X112.854 Y113.410 E0.06271
G1 X112.854 Y118.590 E0.16242
G1 X99.854 Y118.590 E0.40761
G1 X99.854 Y121.590 E0.09406
G1 X94.854 Y121.590 E0.15677
G1 X94.854 Y123.590 E0.06271
G1 X75.674 Y123.590 E0.60138
G1 X75.674 Y121.590 E0.06271
G1 X70.674 Y121.590 E0.15677
G1 X70.674 Y118.590 E0.09406
G1 X57.674 Y118.590 E0.40761
G1 X57.674 Y113.410 E0.16242
G1 X59.674 Y113.410 E0.06271
G1 X59.674 Y108.410 E0.15677
G1 X62.674 Y108.410 E0.09406
G1 X62.674 Y106.410 E0.06271
G1 X64.674 Y106.410 E0.06271
G1 X64.674 Y97.410 E0.28219
G1 X66.674 Y97.410 E0.06271
G1 X66.674 Y92.410 E0.15677
G1 X68.674 Y92.410 E0.06271
G1 X68.674 Y90.410 E0.06271
G1 X71.674 Y90.410 E0.09406
G1 X71.674 Y88.410 E0.06271
G1 X75.674 Y88.410 E0.12542
G1 X75.674 Y85.014 E0.10647
G1 X73.674 Y85.014 E0.06271
G1 X73.674 Y74.410 E0.33249
G1 X75.674 Y74.410 E0.06271
G1 X75.674 Y65.410 E0.28219
G1 X77.674 Y65.410 E0.06271
G1 X77.674 Y58.410 E0.21948
G1 X80.674 Y58.410 E0.09406
G1 X80.674 Y56.410 E0.06271
G1 X83.854 Y56.410 E0.09971
G1 X83.854 Y59.350 E0.09218
M204 S1250
G1 X83.961 Y59.795 F9000.000
G1 E-2.24000 F4200.000
;WIPE_START
G1 F7200.000
G1 X85.500 Y59.385 E-0.91200
;WIPE_END
G1 E-0.04800 F4200.000
G1 Z0.400 F9000.000
G1 X111.987 Y114.858
G1 Z0.200
G1 E3.20000 F2400.000
M204 S800
;TYPE:Solid infill
;WIDTH:0.420585
G1 F1200.000
G1 X111.576 Y114.447 E0.01827
G1 X111.041 Y114.447 E0.01677
G1 X111.817 Y115.223 E0.03445
M73 P1 R139
G1 X111.817 Y115.757 E0.01677
G1 X110.338 Y114.277 E0.06571
M204 S1250
G1 E-2.24000 F4200.000
;WIPE_START
G1 F7200.000
G1 X111.501 Y115.441 E-0.91200
;WIPE_END
G1 E-0.04800 F4200.000
G1 Z0.400 F9000.000
G1 X109.610 Y109.277
G1 Z0.200
G1 E3.20000 F2400.000
M204 S800
G1 F1200.000
G1 X109.817 Y109.484 E0.00918
G1 X109.817 Y110.018 E0.01677
G1 X109.246 Y109.447 E0.02537
G1 X108.712 Y109.447 E0.01677
G1 X109.987 Y110.722 E0.05662
M204 S1250
G1 E-2.24000 F4200.000
;WIPE_START
G1 F7200.000
G1 X108.823 Y109.558 E-0.91200
;WIPE_END
G1 E-0.04800 F4200.000
G1 Z0.400 F9000.000
G1 X107.987 Y107.654
G1 Z0.200
G1 E3.20000 F2400.000
M204 S800
G1 F1200.000
G1 X107.780 Y107.447 E0.00918
G1 X107.246 Y107.447 E0.01677
G1 X107.817 Y108.018 E0.02537
G1 X107.817 Y108.552 E0.01677
G1 X106.542 Y107.277 E0.05662
M204 S1250
G1 E-2.24000 F4200.000
;WIPE_START
G1 F7200.000
G1 X107.706 Y108.441 E-0.91200
;WIPE_END
G1 E-0.04800 F4200.000
G1 Z0.400 F9000.000
G1 X105.987 Y98.710
G1 Z0.200
G1 E3.20000 F2400.000
M204 S800
G1 F1200.000
G1 X105.723 Y98.447 E0.01170
G1 X105.189 Y98.447 E0.01677
G1 X105.817 Y99.075 E0.02788
G1 X105.817 Y99.609 E0.01677
G1 X104.486 Y98.277 E0.05914
M204 S1250
G1 E-2.24000 F4200.000
;WIPE_START
G1 F7200.000
G1 X105.649 Y99.441 E-0.91200
;WIPE_END
G1 E-0.04800 F4200.000
G1 Z0.400 F9000.000
G1 X103.987 Y94.040
M73 P1 R138
G1 Z0.200
G1 E3.20000 F2400.000
M204 S800
G1 F1200.000
G1 X103.394 Y93.447 E0.02633
G1 X102.860 Y93.447 E0.01677
G1 X103.817 Y94.404 E0.04252
G1 X103.817 Y94.938 E0.01677
G1 X102.326 Y93.447 E0.06624
G1 X101.792 Y93.447 E0.01677
G1 X103.987 Y95.642 E0.09749
M204 S1250
G1 E-2.24000 F4200.000
;WIPE_START
G1 F7200.000
G1 X102.823 Y94.479 E-0.91200
;WIPE_END
G1 E-0.04800 F4200.000
G1 Z0.400 F9000.000
G1 X100.987 Y92.108
G1 Z0.200
G1 E3.20000 F2400.000
M204 S800
G1 F1200.000
G1 X100.326 Y91.447 E0.02936
G1 X99.792 Y91.447 E0.01677
G1 X100.987 Y92.642 E0.05308
M204 S1250
G1 E-2.24000 F4200.000
;WIPE_START
G1 F7200.000
G1 X99.823 Y91.479 E-0.91200
;WIPE_END
G1 E-0.04800 F4200.000
G1 Z0.400 F9000.000
G1 X121.459 Y71.454
G1 Z0.200
G1 E3.20000 F2400.000
M204 S800
G1 F1200.000
G1 X121.102 Y71.098 E0.01584
G1 X120.568 Y71.098 E0.01677
G1 X121.289 Y71.819 E0.03202
G1 X121.289 Y72.353 E0.01677
G1 X119.864 Y70.928 E0.06327
M204 S1250
G1 E-2.24000 F4200.000
;WIPE_START
G1 F7200.000
G1 X121.028 Y72.092 E-0.91200
;WIPE_END
G1 E-0.04800 F4200.000
G1 Z0.400 F9000.000
G1 X119.254 Y67.114
G1 Z0.200
G1 E3.20000 F2400.000
M204 S800
G1 F1200.000
G1 X118.864 Y66.723 E0.01734
G1 X118.330 Y66.723 E0.01677
G1 X119.085 Y67.478 E0.03352
G1 X119.085 Y68.012 E0.01677
G1 X117.626 Y66.554 E0.06478
M204 S1250
G1 E-2.24000 F4200.000
;WIPE_START
G1 F7200.000
G1 X118.790 Y67.717 E-0.91200
;WIPE_END
G1 E-0.04800 F4200.000
G1 Z0.400 F9000.000
G1 X116.987 Y64.846
G1 Z0.200
G1 E3.20000 F2400.000
M204 S800
G1 F1200.000
G1 X116.588 Y64.447 E0.01773
G1 X116.054 Y64.447 E0.01677
G1 X116.817 Y65.211 E0.03391
G1 X116.817 Y65.745 E0.01677
G1 X115.350 Y64.277 E0.06517
M204 S1250
G1 E-2.24000 F4200.000
;WIPE_START
G1 F7200.000
